src/images/icon/Logo-GoITeens.svg

<svg width="270" height="70" viewBox="0 0 270 70" fill="none" xmlns="http://www.w3.org/2000/svg">
	<path d="M101.595 10.3172L265.642 0.774658L270 59.3725L105.519 69.487L101.595 10.3172Z" fill="#FEC830" />
	<path d="M3.56467 66.1829C2.98441 52.3734 0 7.58513 0 7.58513L87.2597 2.40576L109.346 30.9865L90.8436 61.1959L3.56467 66.1829Z" fill="black" />
	<path d="M21.0583 36.195C20.9199 34.3284 21.1682 32.4535 21.7881 30.6854C22.3748 28.9869 23.2992 27.422 24.5067 26.083C25.7511 24.7282 27.2523 23.6288 28.9251 22.8474C30.7154 21.9972 32.6551 21.4987 34.637 21.3795C36.9138 21.2276 38.9494 21.4259 40.7439 21.9742C42.5788 22.5417 44.2979 23.4259 45.8218 24.586L41.7945 30.0868C40.8325 29.3724 39.7628 28.8125 38.6248 28.4279C37.4944 28.079 36.3064 27.9501 35.1265 28.0482C34.2022 28.0939 33.2986 28.3351 32.4764 28.7558C31.6543 29.1764 30.9327 29.7666 30.3604 30.4867C29.1266 31.9833 28.5796 33.7549 28.7193 35.8015C28.8676 37.9805 29.6771 39.7327 31.1478 41.058C32.6185 42.3833 34.4198 42.9739 36.5517 42.8296C38.2933 42.7115 39.709 42.2298 40.7988 41.3845L40.5701 38.0324L35.2096 38.3918L34.8454 33.0429L47.261 32.2127L48.0841 44.2735C44.8939 47.2261 41.0928 48.8484 36.6807 49.1403C33.9089 49.3267 31.3668 48.9049 29.0542 47.8748C26.7906 46.8884 24.852 45.293 23.4586 43.27C22.0408 41.2284 21.2406 38.8701 21.0583 36.195Z" fill="white" />
	<path d="M54.1373 34.0235C54.0038 32.1683 54.2592 30.3058 54.8876 28.5531C55.4863 26.8483 56.4159 25.2758 57.624 23.9242C58.8698 22.5578 60.3734 21.4457 62.0502 20.6505C65.6512 18.94 69.7776 18.661 73.5801 19.8711C75.3378 20.4302 76.9672 21.3262 78.3756 22.5082C79.7452 23.6839 80.8656 25.117 81.6718 26.7246C82.5232 28.3939 83.0229 30.2172 83.1404 32.0836C83.2726 33.9391 83.0176 35.8016 82.3914 37.5553C81.7973 39.2614 80.8706 40.8354 79.6639 42.188C78.4221 43.5522 76.9223 44.6622 75.2493 45.4553C73.4714 46.3154 71.5394 46.8194 69.5642 46.9384C66.8435 47.1206 64.3299 46.6688 62.0233 45.5831C59.7811 44.5482 57.8647 42.93 56.4788 40.9011C55.0865 38.8594 54.2775 36.4831 54.1373 34.0235ZM61.7933 33.511C61.927 35.4876 62.6939 37.1411 64.0939 38.4714C65.4938 39.8018 67.1912 40.3999 69.1859 40.2658C71.2053 40.1317 72.8068 39.3222 73.9903 37.8375C75.1739 36.3527 75.697 34.6039 75.5599 32.591C75.4252 30.6145 74.6584 28.961 73.2592 27.6306C71.8601 26.3002 70.1483 25.7025 68.1238 25.8375C66.1299 25.9708 64.5412 26.7798 63.3577 28.2646C62.1741 29.7493 61.6527 31.4981 61.7933 33.511Z" fill="white" />
	<path d="M125.322 52.6096L123.499 25.9092L130.968 25.4106L132.797 52.111L125.322 52.6096Z" fill="white" />
	<path d="M135.258 31.6508L134.815 25.1504L158.479 23.5686L158.923 30.0678L150.818 30.6069L152.197 50.8144L144.729 51.3129L143.35 31.1054L135.258 31.6508Z" fill="white" />
	<path d="M158.421 40.0508C158.315 38.6062 158.482 37.1547 158.915 35.7711C159.313 34.4658 159.964 33.2498 160.832 32.1912C161.709 31.1465 162.792 30.2907 164.016 29.6769C165.316 29.0173 166.741 28.6321 168.199 28.5456C169.942 28.4292 171.519 28.6266 172.928 29.1378C174.257 29.5988 175.451 30.3747 176.407 31.3978C177.331 32.4115 178.061 33.5834 178.561 34.8562C179.099 36.2309 179.418 37.6804 179.505 39.1523C179.551 39.8103 179.572 40.3076 179.57 40.6442L165.612 41.5769C165.978 42.6879 166.574 43.5121 167.401 44.0495C168.229 44.5869 169.218 44.8167 170.368 44.7391C171.99 44.6269 173.483 43.8074 174.846 42.2804L179.119 45.3554C177.088 48.2709 174.16 49.8565 170.335 50.1121C168.165 50.2581 166.206 49.9404 164.455 49.1592C162.736 48.407 161.271 47.1799 160.238 45.6249C159.172 44.0457 158.566 42.1876 158.421 40.0508ZM165.247 37.8742L172.488 37.3896C172.271 36.244 171.82 35.3582 171.136 34.7322C170.452 34.1062 169.614 33.8257 168.622 33.8907C168.175 33.9126 167.737 34.0285 167.339 34.2308C166.941 34.433 166.59 34.717 166.311 35.0637C165.712 35.7825 165.357 36.7193 165.247 37.8742Z" fill="white" />
	<path d="M182.114 38.4676C182.008 37.0227 182.174 35.5709 182.606 34.1866C183.005 32.8816 183.656 31.6657 184.523 30.6068C185.4 29.5627 186.483 28.707 187.706 28.0924C189.006 27.4327 190.431 27.0479 191.89 26.9624C193.634 26.8459 195.21 27.0429 196.619 27.5533C197.948 28.0127 199.143 28.7874 200.1 29.8096C201.024 30.8225 201.754 31.9941 202.253 33.2667C202.792 34.6436 203.11 36.0951 203.198 37.5691C203.243 38.2271 203.264 38.7244 203.262 39.061L189.305 39.9949C189.67 41.1051 190.267 41.9289 191.094 42.4663C191.921 43.0037 192.91 43.234 194.061 43.1572C195.691 43.0467 197.184 42.2263 198.542 40.696L202.814 43.7709C200.782 46.6865 197.854 48.272 194.03 48.5276C191.86 48.6736 189.9 48.356 188.151 47.5748C186.431 46.8224 184.967 45.5953 183.933 44.0405C182.866 42.4612 182.26 40.6036 182.114 38.4676ZM188.939 36.2898L196.181 35.8051C195.964 34.6603 195.513 33.7745 194.827 33.1477C194.142 32.5209 193.304 32.2404 192.313 32.3062C191.866 32.3281 191.429 32.4442 191.031 32.6467C190.632 32.8492 190.282 33.1335 190.004 33.4805C189.403 34.201 189.048 35.1374 188.939 36.2898Z" fill="white" />
	<path d="M207.356 47.1257L205.95 26.4905L213.267 26.0008L213.466 28.9239C215.098 26.545 217.1 25.2762 219.473 25.1176C221.68 24.9691 223.46 25.5297 224.813 26.7993C226.166 28.0689 226.924 29.8827 227.085 32.2406L228.005 45.7439L220.688 46.2324L219.921 35.0865C219.846 33.9839 219.52 33.1504 218.944 32.5861C218.368 32.0217 217.634 31.7686 216.742 31.8268C215.823 31.8892 215.101 32.2423 214.577 32.886C214.053 33.5296 213.828 34.3969 213.901 35.4877L214.661 46.6335L207.356 47.1257Z" fill="white" />
	<path d="M230.395 42.8941L232.841 38.3221C235.354 39.6938 237.796 40.3004 240.166 40.1418C241.395 40.0574 241.983 39.6356 241.931 38.8764C241.907 38.5145 241.635 38.2323 241.118 38.0298C240.602 37.8273 239.712 37.6109 238.466 37.3794C237.52 37.2005 236.714 37.0242 236.048 36.8504C235.344 36.6634 234.657 36.4174 233.995 36.1152C233.373 35.8488 232.797 35.4881 232.288 35.0459C231.822 34.6119 231.444 34.0945 231.173 33.5211C230.854 32.8535 230.67 32.1304 230.631 31.3927C230.481 29.2077 231.136 27.4538 232.596 26.1311C234.055 24.8083 236.027 24.0642 238.51 23.8989C240.052 23.7969 241.602 23.9145 243.111 24.2481C244.572 24.557 245.977 25.0821 247.28 25.8058L245.092 30.5714C244.01 30.0883 242.883 29.7099 241.727 29.4414C240.599 29.1832 239.622 29.082 238.796 29.1377C238.244 29.174 237.83 29.2925 237.554 29.4933C237.424 29.5783 237.32 29.6965 237.252 29.8352C237.185 29.974 237.157 30.1282 237.17 30.2816C237.195 30.6452 237.463 30.9274 237.974 31.1282C238.485 31.329 239.387 31.569 240.679 31.8482C241.624 32.0389 242.43 32.2274 243.098 32.4139C243.801 32.6148 244.488 32.8686 245.152 33.1731C245.774 33.4388 246.35 33.7992 246.86 34.2411C247.321 34.6684 247.698 35.1764 247.973 35.7394C248.29 36.3851 248.473 37.0874 248.511 37.8046C248.664 40.0587 248.018 41.8412 246.571 43.1522C245.124 44.4632 243.096 45.206 240.486 45.3806C236.76 45.6278 233.397 44.7989 230.395 42.8941Z" fill="white" />
</svg>

<svg width="270" height="70" fill="none" xmlns="http://www.w3.org/2000/svg"><path d="M101.595 10.317L265.642.775 270 59.373 105.519 69.487l-3.924-59.17z" fill="#FEC830"/><path d="M3.565 66.183C2.985 52.373 0 7.585 0 7.585l87.26-5.18 22.086 28.581-18.502 30.21-87.28 4.987z" fill="#000"/><path d="M21.058 36.195c-.138-1.867.11-3.742.73-5.51a13.411 13.411 0 012.719-4.602 14.102 14.102 0 014.418-3.236c1.79-.85 3.73-1.348 5.712-1.468 2.277-.151 4.312.047 6.107.595a16.366 16.366 0 015.078 2.612l-4.028 5.5a11.483 11.483 0 00-3.17-1.658 9.262 9.262 0 00-3.498-.38 6.526 6.526 0 00-2.65.708 6.461 6.461 0 00-2.116 1.73c-1.233 1.497-1.78 3.269-1.64 5.315.148 2.18.957 3.932 2.428 5.257 1.47 1.325 3.272 1.916 5.404 1.772 1.741-.118 3.157-.6 4.247-1.445l-.229-3.353-5.36.36-.365-5.35 12.416-.83.823 12.061c-3.19 2.953-6.991 4.575-11.403 4.867-2.772.187-5.314-.235-7.627-1.265a13.188 13.188 0 01-5.595-4.605c-1.418-2.042-2.218-4.4-2.4-7.075zM54.137 34.023a13.364 13.364 0 01.75-5.47 13.816 13.816 0 012.737-4.629 14.253 14.253 0 014.426-3.273 15.755 15.755 0 0111.53-.78 14.114 14.114 0 014.796 2.637 13.583 13.583 0 013.296 4.217 13.686 13.686 0 011.468 5.359 13.43 13.43 0 01-.749 5.471 13.754 13.754 0 01-2.727 4.633 14.185 14.185 0 01-4.415 3.267 15.148 15.148 0 01-5.685 1.483c-2.72.183-5.234-.27-7.54-1.355a13.577 13.577 0 01-7.886-11.56zm7.656-.512c.134 1.977.9 3.63 2.3 4.96s3.098 1.929 5.093 1.795c2.02-.134 3.62-.944 4.804-2.428 1.184-1.485 1.707-3.234 1.57-5.247-.135-1.977-.902-3.63-2.3-4.96-1.4-1.33-3.112-1.928-5.136-1.794-1.994.134-3.583.943-4.766 2.428-1.184 1.484-1.705 3.233-1.565 5.246zM125.322 52.61l-1.823-26.7 7.469-.5 1.829 26.701-7.475.499zM135.258 31.65l-.443-6.5 23.664-1.581.444 6.499-8.105.539 1.379 20.207-7.468.499-1.379-20.208-8.092.546zM158.421 40.05a11.507 11.507 0 01.494-4.279 10.455 10.455 0 011.917-3.58c.877-1.045 1.96-1.9 3.184-2.514a10.64 10.64 0 014.183-1.131c1.743-.117 3.32.08 4.729.592a8.631 8.631 0 013.479 2.26 11.23 11.23 0 012.154 3.458c.538 1.375.857 2.824.944 4.296.046.658.067 1.156.065 1.492l-13.958.933c.366 1.11.962 1.935 1.789 2.473.828.537 1.817.767 2.967.69 1.622-.113 3.115-.933 4.478-2.46l4.273 3.075c-2.031 2.916-4.959 4.502-8.784 4.757-2.17.146-4.129-.172-5.88-.953a9.755 9.755 0 01-4.217-3.534c-1.066-1.58-1.672-3.437-1.817-5.574zm6.826-2.176l7.241-.484c-.217-1.146-.668-2.032-1.352-2.658-.684-.626-1.522-.906-2.514-.841a3.177 3.177 0 00-2.311 1.173c-.599.718-.954 1.655-1.064 2.81zM182.114 38.468c-.106-1.445.06-2.897.492-4.281a10.495 10.495 0 011.917-3.58c.877-1.044 1.96-1.9 3.183-2.515a10.62 10.62 0 014.184-1.13c1.744-.116 3.32.08 4.729.591a8.63 8.63 0 013.481 2.257 11.195 11.195 0 012.153 3.457c.539 1.377.857 2.828.945 4.302.045.658.066 1.155.064 1.492l-13.957.934c.365 1.11.962 1.934 1.789 2.471.827.538 1.816.768 2.967.691 1.63-.11 3.123-.93 4.481-2.461l4.272 3.075c-2.032 2.916-4.96 4.501-8.784 4.757-2.17.146-4.13-.172-5.879-.953a9.76 9.76 0 01-4.218-3.535c-1.067-1.579-1.673-3.436-1.819-5.572zm6.825-2.178l7.242-.485c-.217-1.145-.668-2.03-1.354-2.657-.685-.627-1.523-.908-2.514-.842a3.17 3.17 0 00-2.309 1.175c-.601.72-.956 1.656-1.065 2.809zM207.356 47.126L205.95 26.49l7.317-.49.199 2.923c1.632-2.379 3.634-3.648 6.007-3.806 2.207-.149 3.987.412 5.34 1.681 1.353 1.27 2.111 3.084 2.272 5.442l.92 13.503-7.317.488-.767-11.145c-.075-1.103-.401-1.937-.977-2.5-.576-.565-1.31-.818-2.202-.76-.919.062-1.641.415-2.165 1.059-.524.644-.749 1.51-.676 2.602l.76 11.145-7.305.493zM230.395 42.894l2.446-4.572c2.513 1.372 4.955 1.978 7.325 1.82 1.229-.085 1.817-.506 1.765-1.266-.024-.361-.296-.644-.813-.846-.516-.203-1.406-.42-2.652-.65a36.978 36.978 0 01-2.418-.53 12.95 12.95 0 01-2.053-.735 6.511 6.511 0 01-1.707-1.07 5.007 5.007 0 01-1.115-1.524 5.625 5.625 0 01-.542-2.128c-.15-2.185.505-3.94 1.965-5.262 1.459-1.323 3.431-2.067 5.914-2.232a16.328 16.328 0 014.601.35c1.461.308 2.866.833 4.169 1.557l-2.188 4.765a18.546 18.546 0 00-3.365-1.13c-1.128-.258-2.105-.359-2.931-.303-.552.036-.966.154-1.242.355a.861.861 0 00-.302.342.86.86 0 00-.082.447c.025.363.293.645.804.846.511.201 1.413.441 2.705.72.945.19 1.751.38 2.419.566.703.2 1.39.455 2.054.76a6.518 6.518 0 011.708 1.067c.461.427.838.935 1.113 1.498.317.646.5 1.348.538 2.066.153 2.254-.493 4.036-1.94 5.347-1.447 1.311-3.475 2.054-6.085 2.229-3.726.247-7.089-.582-10.091-2.487z" fill="#fff"/></svg>
